svg/blobs-icons/no-decorations/baby-sippy-cup.svg

<svg xmlns="http://www.w3.org/2000/svg" xmlns:xlink="http://www.w3.org/1999/xlink" preserveAspectRatio="xMidYMid" width="217" height="200" viewBox="0 0 217 200"><defs><style>.cls-3{fill:#142a3b}.cls-5{fill:#0cb04a}.cls-6{fill:#fbb713}.cls-7{fill:#020403;opacity:.35}.cls-8{fill:#020403;opacity:.25}.cls-9{fill:#ff3a2f}.cls-10{fill:#fff}</style></defs><g id="group-105svg"><path d="M178.33 156.542C176.334 156.542 174.715 154.923 174.715 152.927 174.715 150.931 176.334 149.312 178.33 149.312c17.261.0 31.303-14.043 31.303-31.304.0-17.26-14.042-31.302-31.303-31.302C176.334 86.706 174.715 85.087 174.715 83.091 174.715 81.096 176.334 79.477 178.33 79.477c21.247.0 38.532 17.284 38.532 38.531s-17.285 38.534-38.532 38.534z" id="path-1" class="cls-3" fill-rule="evenodd"/><path d="M38.52 156.542c-21.246.0-38.531-17.287-38.531-38.534S17.274 79.477 38.52 79.477C40.516 79.477 42.135 81.096 42.135 83.091 42.135 85.087 40.516 86.706 38.52 86.706c-17.26.0-31.303 14.042-31.303 31.302.0 17.261 14.043 31.304 31.303 31.304 1.996.0 3.615 1.619 3.615 3.61499999999998C42.135 154.923 40.516 156.542 38.52 156.542z" id="path-2" class="cls-3" fill-rule="evenodd"/><path d="M174.403 199.484s-133.175.0-133.175.0C39.221 199.484 37.594 197.857 37.594 195.849V78.436s140.443.0 140.443.0.0 117.413.0 117.413C178.037 197.857 176.41 199.484 174.403 199.484z" id="path-3" class="cls-5" fill-rule="evenodd"/><path d="M140.403 28.94s0-10.974.0-10.974C140.403 8.052 132.365.013 122.45.013H95.683C85.767.013 77.73 8.052 77.73 17.966V28.94S37.594 43.404 37.594 43.404s0 38.57.0 38.57 141.378.0 141.378.0.0-38.57.0-38.57S140.403 28.94 140.403 28.94z" id="path-4" class="cls-6" fill-rule="evenodd"/><path d="M158.753 82.453s0 86.106.0 86.106c0 9.357-7.845 16.942-17.523 16.942H37.902C39.354 193.44 46.487 199.485 55.117 199.485H160.514c9.678.0 17.524-7.58600000000001 17.524-16.944V82.453s-19.285.0-19.285.0z" id="path-5" class="cls-7" fill-rule="evenodd"/><path d="M140.403 28.94s0-10.974.0-10.974C140.403 8.052 132.365.013 122.451.013H103.166C113.081.013 121.119 8.052 121.119 17.966v5.967c0 3.017 1.857 5.722 4.672 6.807L150.382 40.209C155.384 42.134 158.683 46.939 158.683 52.298V81.974s20.289.0 20.289.0.0-38.57.0-38.57S140.403 28.94 140.403 28.94z" id="path-6" class="cls-8" fill-rule="evenodd"/><path d="M136.473 122.791C136.473 115.727 130.747 110 123.683 110s-12.79 5.727-12.79 12.791C110.893 126.159 107.241 126.159 107.241 122.791 107.241 115.727 101.515 110 94.45 110s-12.79 5.727-12.79 12.791c0 5.453 27.407 45.128 27.407 45.128s27.406-39.675 27.406-45.128z" id="path-7" class="cls-9" fill-rule="evenodd"/><path d="M99.425 15.983c0 3.828-3.104 6.931-6.931 6.931S85.564 19.811 85.564 15.983C85.564 12.156 88.667 9.052 92.494 9.052s6.931 3.104 6.931 6.931z" id="path-8" class="cls-10" fill-rule="evenodd"/><path d="M51.214 166.343C49.218 166.343 47.599 164.723 47.599 162.727V99.45C47.599 97.454 49.218 95.835 51.214 95.835 53.21 95.835 54.829 97.454 54.829 99.45v63.277C54.829 164.723 53.21 166.343 51.214 166.343z" id="path-9" class="cls-10" fill-rule="evenodd"/></g></svg>

<svg xmlns="http://www.w3.org/2000/svg" xmlns:xlink="http://www.w3.org/1999/xlink" preserveAspectRatio="xMidYMid" width="217" height="200" viewBox="0 0 217 200">
  <defs>
    <style>

      .cls-3 {
        fill: #142a3b;
      }

      .cls-5 {
        fill: #0cb04a;
      }

      .cls-6 {
        fill: #fbb713;
      }

      .cls-7 {
        fill: #020403;
        opacity: 0.35;
      }

      .cls-8 {
        fill: #020403;
        opacity: 0.25;
      }

      .cls-9 {
        fill: #ff3a2f;
      }

      .cls-10 {
        fill: #ffffff;
      }
    </style>
  </defs>
  <g id="group-105svg">
    <path d="M178.330,156.542 C176.334,156.542 174.715,154.923 174.715,152.927 C174.715,150.931 176.334,149.312 178.330,149.312 C195.591,149.312 209.633,135.269 209.633,118.008 C209.633,100.748 195.591,86.706 178.330,86.706 C176.334,86.706 174.715,85.087 174.715,83.091 C174.715,81.096 176.334,79.477 178.330,79.477 C199.577,79.477 216.862,96.761 216.862,118.008 C216.862,139.255 199.577,156.542 178.330,156.542 Z" id="path-1" class="cls-3" fill-rule="evenodd"/>
    <path d="M38.520,156.542 C17.274,156.542 -0.011,139.255 -0.011,118.008 C-0.011,96.761 17.274,79.477 38.520,79.477 C40.516,79.477 42.135,81.096 42.135,83.091 C42.135,85.087 40.516,86.706 38.520,86.706 C21.260,86.706 7.217,100.748 7.217,118.008 C7.217,135.269 21.260,149.312 38.520,149.312 C40.516,149.312 42.135,150.931 42.135,152.927 C42.135,154.923 40.516,156.542 38.520,156.542 Z" id="path-2" class="cls-3" fill-rule="evenodd"/>
    <path d="M174.403,199.484 C174.403,199.484 41.228,199.484 41.228,199.484 C39.221,199.484 37.594,197.857 37.594,195.849 C37.594,195.849 37.594,78.436 37.594,78.436 C37.594,78.436 178.037,78.436 178.037,78.436 C178.037,78.436 178.037,195.849 178.037,195.849 C178.037,197.857 176.410,199.484 174.403,199.484 Z" id="path-3" class="cls-5" fill-rule="evenodd"/>
    <path d="M140.403,28.940 C140.403,28.940 140.403,17.966 140.403,17.966 C140.403,8.052 132.365,0.013 122.450,0.013 C122.450,0.013 95.683,0.013 95.683,0.013 C85.767,0.013 77.730,8.052 77.730,17.966 C77.730,17.966 77.730,28.940 77.730,28.940 C77.730,28.940 37.594,43.404 37.594,43.404 C37.594,43.404 37.594,81.974 37.594,81.974 C37.594,81.974 178.972,81.974 178.972,81.974 C178.972,81.974 178.972,43.404 178.972,43.404 C178.972,43.404 140.403,28.940 140.403,28.940 Z" id="path-4" class="cls-6" fill-rule="evenodd"/>
    <path d="M158.753,82.453 C158.753,82.453 158.753,168.559 158.753,168.559 C158.753,177.916 150.908,185.501 141.230,185.501 C141.230,185.501 37.902,185.501 37.902,185.501 C39.354,193.440 46.487,199.485 55.117,199.485 C55.117,199.485 160.514,199.485 160.514,199.485 C170.192,199.485 178.038,191.899 178.038,182.541 C178.038,182.541 178.038,82.453 178.038,82.453 C178.038,82.453 158.753,82.453 158.753,82.453 Z" id="path-5" class="cls-7" fill-rule="evenodd"/>
    <path d="M140.403,28.940 C140.403,28.940 140.403,17.966 140.403,17.966 C140.403,8.052 132.365,0.013 122.451,0.013 C122.451,0.013 103.166,0.013 103.166,0.013 C113.081,0.013 121.119,8.052 121.119,17.966 C121.119,17.966 121.119,23.933 121.119,23.933 C121.119,26.950 122.976,29.655 125.791,30.740 C125.791,30.740 150.382,40.209 150.382,40.209 C155.384,42.134 158.683,46.939 158.683,52.298 C158.683,52.298 158.683,81.974 158.683,81.974 C158.683,81.974 178.972,81.974 178.972,81.974 C178.972,81.974 178.972,43.404 178.972,43.404 C178.972,43.404 140.403,28.940 140.403,28.940 Z" id="path-6" class="cls-8" fill-rule="evenodd"/>
    <path d="M136.473,122.791 C136.473,115.727 130.747,110.000 123.683,110.000 C116.619,110.000 110.893,115.727 110.893,122.791 C110.893,126.159 107.241,126.159 107.241,122.791 C107.241,115.727 101.515,110.000 94.450,110.000 C87.385,110.000 81.660,115.727 81.660,122.791 C81.660,128.244 109.067,167.919 109.067,167.919 C109.067,167.919 136.473,128.244 136.473,122.791 Z" id="path-7" class="cls-9" fill-rule="evenodd"/>
    <path d="M99.425,15.983 C99.425,19.811 96.321,22.914 92.494,22.914 C88.667,22.914 85.564,19.811 85.564,15.983 C85.564,12.156 88.667,9.052 92.494,9.052 C96.321,9.052 99.425,12.156 99.425,15.983 Z" id="path-8" class="cls-10" fill-rule="evenodd"/>
    <path d="M51.214,166.343 C49.218,166.343 47.599,164.723 47.599,162.727 C47.599,162.727 47.599,99.450 47.599,99.450 C47.599,97.454 49.218,95.835 51.214,95.835 C53.210,95.835 54.829,97.454 54.829,99.450 C54.829,99.450 54.829,162.727 54.829,162.727 C54.829,164.723 53.210,166.343 51.214,166.343 Z" id="path-9" class="cls-10" fill-rule="evenodd"/>
  </g>
</svg>
